X:200
T:Paddy Canny's
R:Reel
M:4/4
S:Sharon Shannon, Clare (accordian)
D:Session tape, Doolin 1987
Z:Bernie Stocks
K:G
G2BG DGBG | G2Bd cAFA |1 G2BG DGBG | defd cAFA :|2 GB~B2 dB~B2 |
defd cAFA :| dggf gefg | adfd agfe | dggf gdfe | defd cAFA |
dggf gefa | a2ab agfe | dg~g2 bg~g2 | defd cAFA :|
